X: 469
%
U:~=!turn!
T: Mrs. Forbes of Boharm's Strathspey
C:Marshall
O:Scotland
B:Keith Norman MacDonald : "The Skye collection of the best reels & strathspeys extant" : 1887
Z:Ralph Palmer
R:Strathspey
M:C|
L:1/8
K:Bb
D | B,<B-B>c {Bc}d>c B>F | (3GBG (3FED (3CEC (3EFG | B,<B-B>c {Bc}d>cB>F | G<BF>D B,/B,/B, B, :|
e | d<Bf<B g<Bf<B | e>cd<B c>Bc<e | d<Bf<B e/f/g/a/ bd | Tc>Bc<d B/B/B Be |
d<Bf<B g<Bf<B | e<cd<B c>Bc<d | {Bc}d>cB<F BdBF | G<BF>D B,/B,/B, B, |]


